X: 6
T: Miss Lyall
Z: mockchoi
S: https://thesession.org/tunes/173#setting47504
R: strathspey
M: 4/4
L: 1/8
K: Ador
(c>B)|(A<A,) A,>B, C>D E>F|G/2G/2G B>AG2c>B|(A<A,) A,>B, C>D E>A|c>A B<^GA2c>B|
(A<A,) A,>B, C>D E>F|G/2G/2G B>AG2(c>d)|e>c d>B c>A B<G|E>A c/2B/2A/2^G/2A2(c>B)|
e<a a>f g>a b/2a/2g/2f/2|[eA]<a a>f g2f>g|[eA]<a a>f g>a b/2a/2g/2f/2|e>c d>B c<A c>B|
e<a a>f g>a b/2a/2g/2f/2|[eA]<a a>f g2f>g|(3agf (3gab (3edc (3Bcd|e>c d>B c<A z2|

%-------------------- TUNE SEPARATOR --------------------%

